svgs/sharp-light/mountains.svg

<svg xmlns="http://www.w3.org/2000/svg" viewBox="0 0 640 512"><!--! Font Awesome Pro 6.6.0 by @fontawesome - https://fontawesome.com License - https://fontawesome.com/license (Commercial License) Copyright 2024 Fonticons, Inc. --><path d="M32 448l448 0 0-30.1L256 88.9 32 417.9 32 448zM0 448l0-40L236.6 60.4 256 32l19.4 28.4L412.5 261.9 460.8 189 480 160l19.2 29L640 401.7l0 46.3 0 32-32 0-96 0-32 0-23 0L32 480 0 480l0-32zm512 0l96 0 0-36.7L480 218l-48 72.5L512 408l0 40z"/></svg>

<svg xmlns="http://www.w3.org/2000/svg" viewBox="0 0 640 512"><!--! Font Awesome Pro 6.4.2 by @fontawesome - https://fontawesome.com License - https://fontawesome.com/license (Commercial License) Copyright 2023 Fonticons, Inc. --><path d="M32 448H480V417.9L256 88.9 32 417.9V448zM0 448V408L236.6 60.4 256 32l19.4 28.4L412.5 261.9 460.8 189 480 160l19.2 29L640 401.7V448v32H608 512 480 457 32 0V448zm512 0h96V411.3L480 218l-48 72.5L512 408v40z"/></svg>
